X:487
T:Monica's Delight
T:Piccadilly-O
S:Colin Hume's website,  colinhume.com  - chords can also be printed below the stave.
Q:3/8=140
M:6/8
L:1/8
K:G
"G"B2d d2d | "D7"c2d d2d | "G"B2G "D7"A2F | "G"G6 |\
"G"B2d d2d | "D7"c2d d2d | "G"B2G "D7"A2F | "G"G6 |
"Em"g2g fed | "C"e2e e3 | "Bm"d2d dcB | "D7"A2A A3 |\
"G"Bcd "D7"def | "Em"g2g "Am"d2c | "G"B2G "D7"A2F | "G"G6 |]

